!!!OTL: ES WAR EINMAL EIN RITTERSMANN
!!!ARE: Europa, Mitteleuropa, Oesterreich, Steiermark
!!!SCT: E0041
!!!YEM: Copyright 1995, estate of Helmut Schaffrath.
**kern
*ICvox
*Ivox
*M6/8
*k[b-e-]
*B-:
{8f
=1
8b-
8dd
8dd
8dd
8ff
8ff
=2
8ee-
8cc
8cc
8cc
8r}
{8f
=3
8f
8cc
8cc
8cc
8ee-
8ee-
=4
8dd
8b-
8b-
4b-}
{8f
=5
8b-
8a
8g
8f
8e-
8d
=6
4f
8ee-
4dd}
{8cc
=7
8b-
8a
8g
8f
8e-
8d
=8
8f
8g
8a
4b-}
==
!!!AGN: erzaehlendes Volks - Lied, Ritter - Sage, Ballade ?
!!!ONB: ESAC (Essen Associative Code) Database: ERK1
!!!AMT: compound duple
!!!AIN: vox
!!!EED: Helmut Schaffrath
!!!EEV: 1.0
*-
